icons/svg/compass.svg

<svg width="24" height="24" viewBox="0 0 24 24" fill="none" xmlns="http://www.w3.org/2000/svg">
<circle cx="12" cy="12" r="9.25" stroke="currentColor" stroke-width="1.5" stroke-linecap="round" stroke-linejoin="round"/>
<path d="M10.1949 10.1949C10.3419 10.0479 10.5009 9.91275 10.6702 9.79095C11.0524 9.51614 11.5049 9.33511 12.4101 8.97306L14.7667 8.03041C15.3985 7.77767 15.7145 7.65131 15.9148 7.71748C16.0887 7.77493 16.2252 7.91137 16.2826 8.08529C16.3488 8.28563 16.2224 8.60154 15.9697 9.23338L15.027 11.59C14.665 12.4951 14.4839 12.9477 14.2091 13.3299C14.0873 13.4992 13.9522 13.6582 13.8051 13.8052M10.1949 10.1949C10.0478 10.342 9.91269 10.5009 9.79089 10.6703C9.51608 11.0524 9.33505 11.505 8.973 12.4101L8.03035 14.7668C7.77761 15.3986 7.65125 15.7145 7.71742 15.9149C7.77487 16.0888 7.9113 16.2252 8.08523 16.2827C8.28557 16.3488 8.60148 16.2225 9.23332 15.9697L11.59 15.0271C12.4951 14.665 12.9476 14.484 13.3298 14.2092C13.4992 14.0874 13.6581 13.9522 13.8051 13.8052M10.1949 10.1949L13.8051 13.8052" stroke="currentColor" stroke-width="1.5" stroke-linecap="round" stroke-linejoin="round"/>
</svg>

<svg xmlns="http://www.w3.org/2000/svg" width="24" height="24" fill="none" viewBox="0 0 24 24"><circle cx="12" cy="12" r="9.25" stroke="currentColor" stroke-linecap="round" stroke-linejoin="round" stroke-width="1.5"/><path stroke="currentColor" stroke-linecap="round" stroke-linejoin="round" stroke-width="1.5" d="M10.195 10.195q.221-.22.475-.404c.382-.275.835-.456 1.74-.818l2.357-.943c.632-.252.947-.379 1.148-.313.174.058.31.194.368.368.066.2-.06.517-.313 1.148l-.943 2.357c-.362.905-.543 1.358-.818 1.74q-.183.255-.404.475m-3.61-3.61a4 4 0 0 0-.404.475c-.275.382-.456.835-.818 1.74l-.943 2.357c-.252.632-.379.947-.313 1.148.058.174.194.31.368.368.2.066.516-.06 1.148-.313l2.357-.943c.905-.362 1.358-.543 1.74-.818q.255-.183.475-.404m-3.61-3.61 3.61 3.61"/></svg>
